public/sponsors/cushcore.svg

<svg xmlns="http://www.w3.org/2000/svg" fill="none" viewBox="0 0 217 24" height="24" width="217">
<g clip-path="url(#clip0_0_3)">
<path fill="white" d="M155.597 0.706872C158.362 0.675662 160.983 1.20622 163.383 2.6356C165.247 3.74665 166.573 5.26966 167.057 7.41686C167.316 8.56536 167.222 9.7357 167.069 10.8904C166.77 13.1469 165.818 15.0974 164.313 16.8077C161.592 19.9068 158.181 21.7981 154.17 22.6782C152.235 23.1026 150.282 23.3461 148.3 23.2119C145.588 23.0277 143.054 22.2881 140.944 20.5123C139.124 18.9799 138.066 17.0137 138.082 14.5981C138.095 12.6475 138.628 10.8093 139.692 9.16457C141.933 5.70347 144.942 3.15992 148.865 1.76486C151.04 0.990876 153.306 0.750564 155.597 0.703751V0.706872ZM145.647 13.2311C145.632 15.6311 146.73 17.1104 148.684 17.6909C150.023 18.0904 151.362 18.1528 152.75 17.8688C156.165 17.176 158.808 14.957 159.588 11.4272C160.088 9.16769 159.064 7.17343 156.886 6.41192C156.199 6.17161 155.447 6.04365 154.72 5.99684C152.541 5.85952 150.563 6.4837 148.818 7.782C146.871 9.23011 145.775 11.162 145.647 13.228V13.2311Z"></path>
<path fill="white" d="M75.5043 22.7375C75.5761 22.3692 75.6167 22.029 75.7072 21.7014C76.9212 17.3227 78.1384 12.944 79.3587 8.56539C79.9579 6.41507 80.5664 4.26475 81.1688 2.11444C81.3404 1.49338 81.4934 1.33733 82.1425 1.33109C84.09 1.31548 86.0374 1.3186 87.9849 1.32797C88.4437 1.32797 88.5279 1.45592 88.3875 1.96151C87.9037 3.69051 87.3982 5.41325 86.9082 7.13913C86.7646 7.64784 86.6366 8.16279 86.4962 8.6715C86.4182 8.95238 86.4993 9.1334 86.8021 9.16773C87.4575 9.24887 88.1128 9.37683 88.7714 9.38307C90.9123 9.41116 93.0564 9.39555 95.2005 9.39243C96.3084 9.39243 96.7672 9.02728 97.0512 7.95056C97.5474 6.06553 98.0405 4.17737 98.5398 2.29545C98.7552 1.48089 98.9768 1.3186 99.8225 1.3186C101.626 1.3186 103.433 1.3186 105.237 1.3186C105.715 1.3186 105.843 1.39663 105.774 1.84916C105.665 2.57321 105.487 3.28791 105.29 3.99323C103.83 9.24263 102.354 14.4889 100.887 19.7352C100.693 20.4311 100.534 21.1365 100.334 21.8324C100.166 22.4223 99.885 22.7812 99.1172 22.7625C97.2353 22.7157 95.3503 22.7469 93.4683 22.7437C92.9908 22.7437 92.9315 22.6938 93.0533 22.2288C93.6057 20.144 94.1768 18.0655 94.7323 15.9838C94.826 15.6343 94.9071 15.2816 94.9539 14.9258C95.0163 14.4546 94.9321 14.3672 94.467 14.3609C91.9859 14.3391 89.5079 14.3172 87.0268 14.3048C86.5461 14.3048 86.0686 14.336 85.588 14.3485C85.1168 14.3609 84.8608 14.6169 84.7391 15.0569C84.1992 17.0106 83.653 18.9643 83.11 20.9149C83.0133 21.2644 82.9384 21.6202 82.8291 21.9635C82.6512 22.519 82.3079 22.7531 81.7337 22.7531C79.7613 22.75 77.7857 22.7469 75.8133 22.7437C75.7384 22.7437 75.6604 22.7375 75.5074 22.7281L75.5043 22.7375Z"></path>
<path fill="white" d="M188.947 22.6251C188.641 22.6501 188.367 22.6969 188.092 22.6938C186.26 22.6875 184.431 22.6751 182.599 22.6626C182.431 22.6626 182.262 22.6626 182.094 22.6563C181.385 22.622 181.151 22.4566 180.923 21.7981C180.327 20.0909 179.753 18.3776 179.138 16.6767C178.764 15.6436 178.302 15.3596 177.2 15.3471C177.147 15.3471 177.097 15.3503 177.044 15.3534C175.661 15.4376 175.602 15.4626 175.209 16.7796C174.7 18.4868 174.223 20.2033 173.739 21.9198C173.564 22.5409 173.42 22.6688 172.793 22.6657C171.002 22.6626 169.21 22.6563 167.419 22.6439C166.551 22.6376 166.508 22.5939 166.742 21.7544C167.572 18.7677 168.421 15.7903 169.257 12.8067C169.944 10.3568 170.624 7.90686 171.308 5.45694C171.626 4.31468 171.947 3.1693 172.266 2.02704C172.403 1.52769 172.646 1.32171 173.149 1.32483C176.732 1.34668 180.318 1.32483 183.897 1.41534C185.605 1.45903 187.33 1.62132 188.919 2.34225C190.28 2.9602 191.409 3.87463 191.631 5.45381C191.881 7.23586 191.531 8.93052 190.539 10.4629C189.606 11.9048 188.304 12.9284 186.809 13.7336C186.581 13.8553 186.354 13.9833 186.141 14.1269C185.655 14.4608 185.576 14.6668 185.792 15.2098C186.051 15.8715 186.344 16.5175 186.625 17.1698C187.374 18.9019 188.123 20.6309 188.872 22.3599C188.897 22.416 188.91 22.4784 188.953 22.6189L188.947 22.6251ZM179.122 11.0652C179.122 11.0496 179.122 11.034 179.122 11.0184C179.806 10.9716 180.502 10.9747 181.176 10.8624C182.449 10.6502 183.548 10.1446 184.166 8.89931C184.896 7.42 184.328 6.13105 182.724 5.7503C181.472 5.45381 180.196 5.51623 178.926 5.58489C178.423 5.61298 178.245 5.76591 178.105 6.25589C177.734 7.55732 177.365 8.86186 176.994 10.1664C176.816 10.7906 177.016 11.0559 177.684 11.0684C178.164 11.0746 178.645 11.0684 179.122 11.0684V11.0652Z"></path>
<path fill="white" d="M33.3787 23.0059C32.9012 22.8249 32.3925 22.6314 31.8838 22.441C29.8989 21.7076 28.4008 20.4686 27.6924 18.4213C27.271 17.2041 27.3491 15.9589 27.6674 14.7511C28.7628 10.6221 29.8926 6.50246 31.0442 2.38908C31.4063 1.09702 31.4031 1.33733 32.483 1.33109C34.2089 1.31861 35.9378 1.32485 37.6637 1.33109C38.4377 1.33109 38.4939 1.39039 38.291 2.13005C37.4577 5.16671 36.5995 8.19712 35.7787 11.24C35.4603 12.4229 35.1483 13.615 34.9485 14.8197C34.7394 16.0931 35.3542 17.0387 36.5558 17.563C39.5456 18.8676 42.9662 17.3851 43.9805 14.2455C44.8138 11.6676 45.5004 9.04289 46.2431 6.43692C46.6426 5.03563 47.0171 3.62497 47.4135 2.22055C47.6257 1.45905 47.8098 1.33109 48.5869 1.33109C50.3784 1.33109 52.1698 1.33109 53.9612 1.33109C54.0642 1.33109 54.1703 1.32797 54.2733 1.33109C54.7976 1.35918 54.8881 1.46217 54.7476 1.974C54.214 3.91522 53.6678 5.85019 53.1217 7.78828C52.5162 9.9386 51.8858 12.0795 51.3115 14.2392C50.7092 16.505 49.3984 18.2683 47.6351 19.7633C45.4754 21.5952 42.9974 22.6532 40.201 23.0309C38.1849 23.3024 36.1719 23.4085 34.162 22.9934C34.0747 22.9747 33.9842 22.931 33.8999 22.9372C33.7345 22.9466 33.5722 22.9809 33.3787 23.0121V23.0059Z"></path>
<path fill="white" d="M191.119 22.7531C191.209 22.2631 191.253 21.8262 191.369 21.408C192.676 16.6923 193.996 11.9828 195.31 7.27023C195.753 5.67856 196.187 4.08376 196.634 2.49521C196.705 2.23618 196.802 1.97714 196.939 1.74619C197.164 1.36232 197.554 1.32175 197.96 1.32175C203.465 1.32175 208.971 1.32175 214.476 1.32175C215.035 1.32175 215.593 1.33111 216.152 1.33111C216.498 1.33111 216.614 1.46531 216.511 1.81485C216.158 3.02889 215.821 4.24917 215.487 5.46945C215.372 5.88454 215.081 6.05619 214.682 6.05931C213.942 6.06243 213.203 6.0437 212.463 6.0437C209.62 6.0437 206.78 6.06243 203.937 6.04995C203.141 6.04995 202.679 6.39013 202.495 7.15787C202.367 7.69779 202.176 8.22211 202.048 8.76203C201.911 9.3394 202.158 9.5641 202.726 9.43303C202.819 9.41118 202.925 9.44239 203.022 9.45487C203.212 9.47984 203.403 9.53914 203.593 9.53914C206.124 9.55474 208.658 9.55786 211.19 9.57035C212.079 9.57347 212.123 9.62028 211.892 10.4629C211.62 11.4585 211.339 12.4541 211.046 13.4434C210.874 14.0208 210.796 14.0614 210.191 14.0614C207.388 14.0614 204.583 14.0582 201.78 14.0582C200.825 14.0582 200.547 14.2673 200.276 15.1818C200.079 15.8496 199.882 16.5206 199.689 17.1885C199.577 17.5849 199.67 17.7659 200.073 17.8814C200.257 17.9344 200.457 17.9438 200.65 17.9438C204.052 17.95 207.454 17.95 210.856 17.9594C211.349 17.9594 211.839 17.9906 212.332 18.0156C212.641 18.0312 212.731 18.2091 212.656 18.4931C212.332 19.729 212.02 20.968 211.683 22.2007C211.567 22.6189 211.289 22.7656 210.778 22.7656C208.883 22.7656 206.986 22.7594 205.091 22.7562C200.625 22.7562 196.156 22.7562 191.69 22.7562H191.119V22.7531Z"></path>
<path fill="white" d="M139.705 4.95762C137.904 6.13108 136.197 7.23589 134.499 8.3563C134.212 8.54668 134.022 8.50298 133.81 8.25019C132.405 6.5805 130.573 5.9251 128.426 5.97192C126.738 6.00625 125.068 6.17478 123.548 6.92692C120.87 8.24707 119.382 10.4473 119.135 13.4091C118.979 15.2723 120.302 16.9482 122.072 17.4944C125.249 18.4775 128.161 17.8501 130.948 16.2304C131.416 15.9589 131.893 15.6967 132.383 15.4564C132.496 15.4002 132.714 15.3971 132.795 15.4689C133.956 16.5206 135.099 17.5911 136.247 18.6585C136.263 18.6741 136.263 18.7053 136.291 18.802C135.745 19.2109 135.202 19.6728 134.609 20.0566C131.925 21.7888 128.985 22.8124 125.798 23.0621C124.147 23.19 122.478 23.2774 120.823 23.1994C118.186 23.0746 115.849 22.0728 113.907 20.2782C111.969 18.4868 111.345 16.2241 111.657 13.6463C112.026 10.6096 113.477 8.17217 115.705 6.13108C117.116 4.84214 118.583 3.64059 120.262 2.70743C122.15 1.6588 124.178 1.11888 126.319 0.878569C129.178 0.557114 131.987 0.735007 134.768 1.47467C136.475 1.9272 137.873 2.87596 139.093 4.10872C139.331 4.34904 139.496 4.66113 139.708 4.95762H139.705Z"></path>
<path fill="white" d="M16.8967 0.719364C20.3266 0.697517 22.8889 1.12196 25.2671 2.36409C26.2533 2.87904 27.099 3.58437 27.8325 4.41766C28.1602 4.78905 28.1165 4.94509 27.6983 5.21661C26.2127 6.19034 24.7303 7.16407 23.2447 8.1378C23.1355 8.20958 23.0169 8.26263 22.9108 8.33754C22.6361 8.52479 22.427 8.46237 22.2086 8.21582C21.4627 7.38877 20.6262 6.68345 19.5339 6.34639C19.4028 6.30581 19.2562 6.31518 19.122 6.28085C18.9846 6.24652 18.8504 6.18722 18.7162 6.14041C18.5758 6.09047 18.4354 5.99996 18.2918 5.9906C16.4629 5.87513 14.6559 6.04366 12.9144 6.62103C10.1056 7.55418 8.31109 9.4954 7.65569 12.351C7.26246 14.0675 7.70875 15.6436 9.15374 16.8077C9.3566 16.97 9.62812 17.048 9.86219 17.176C10.1212 17.3164 10.3584 17.5099 10.6299 17.6036C11.7191 17.9749 12.8489 17.9905 13.9787 17.9094C16.1945 17.7471 18.2419 17.0792 20.0863 15.8277C20.1175 15.8059 20.1519 15.7872 20.1862 15.7653C20.9508 15.3315 21.0226 15.3534 21.6468 15.9495C22.4894 16.7547 23.3477 17.5443 24.1997 18.3432C24.6085 18.7271 24.5742 18.958 24.1248 19.2889C22.5175 20.4717 20.7792 21.4017 18.891 22.0571C17.0653 22.6907 15.1927 23.0558 13.2609 23.1401C12.1342 23.19 11.0044 23.3304 9.88091 23.2805C7.1345 23.1588 4.64712 22.2725 2.5249 20.4966C0.67731 18.9518 -0.0779532 16.945 0.00631177 14.5544C0.131149 10.9279 1.88199 8.17213 4.48171 5.80023C6.61018 3.85901 8.98833 2.37033 11.7566 1.53392C13.6822 0.950312 15.6577 0.70688 16.8967 0.719364Z"></path>
<path fill="white" d="M68.192 0.719367C70.7075 0.791148 73.1792 1.13757 75.5355 2.05824C76.141 2.29543 76.6934 2.68243 77.2458 3.04445C77.5953 3.27228 77.6016 3.5438 77.2708 3.80284C76.0692 4.74536 74.8521 5.67227 73.6349 6.59606C73.2541 6.88319 72.8422 6.88943 72.4333 6.64288C71.0789 5.82832 69.612 5.37266 68.0453 5.17292C66.6128 4.99191 65.3426 5.28528 64.2628 6.26837C63.7728 6.71154 63.7291 7.3919 64.1567 7.90373C64.5374 8.35939 65.043 8.61218 65.5954 8.78383C67.0279 9.227 68.4698 9.64833 69.8992 10.104C71.0757 10.4785 72.2055 10.9498 73.1605 11.7737C74.6742 13.0751 75.1517 14.8415 74.4807 16.7422C73.8783 18.4493 72.6924 19.6977 71.2692 20.737C69.8055 21.8074 68.1327 22.4535 66.3507 22.7468C64.8682 22.9872 63.3702 23.2306 61.8753 23.2556C59.21 23.3024 56.5728 23.009 54.0542 22.0165C53.1117 21.6452 52.2971 21.0865 51.4982 20.4842C51.1799 20.247 51.3983 20.0785 51.57 19.9349C52.0787 19.5136 52.603 19.111 53.1211 18.7021C53.9981 18.0124 54.875 17.3258 55.7489 16.6361C56.2794 16.2179 56.501 16.2085 57.0815 16.5424C57.921 17.0262 58.7231 17.6036 59.6188 17.95C61.3447 18.6147 63.1392 18.6553 64.9213 18.0998C65.2521 17.9968 65.5767 17.8407 65.8638 17.6535C66.8094 17.0293 66.8126 15.8933 65.8201 15.3596C65.0149 14.9289 64.1535 14.5794 63.2828 14.3016C61.6131 13.7711 59.9621 13.2093 58.436 12.3323C57.2532 11.6551 56.3356 10.7563 56.0547 9.37681C55.855 8.39684 56.1421 7.47616 56.6071 6.61791C58.1239 3.82469 60.4334 2.03952 63.5325 1.29674C65.0617 0.928469 66.6128 0.69752 68.1951 0.719367H68.192Z"></path>
</g>
<defs>
<clipPath id="clip0_0_3">
<rect transform="translate(0 0.706909)" fill="white" height="22.5861" width="216.548"></rect>
</clipPath>
</defs>
</svg>

<svg xmlns="http://www.w3.org/2000/svg" width="217" height="24" fill="none" viewBox="0 0 217 24"><g fill="#fff" clip-path="url(#a)"><path d="M155.597.707c2.765-.031 5.386.5 7.786 1.929 1.864 1.11 3.19 2.634 3.674 4.78.259 1.15.165 2.32.012 3.474-.299 2.257-1.251 4.207-2.756 5.918-2.721 3.099-6.132 4.99-10.143 5.87-1.935.425-3.888.668-5.87.534-2.712-.184-5.246-.924-7.356-2.7-1.82-1.532-2.878-3.498-2.862-5.914a10 10 0 0 1 1.61-5.433c2.241-3.462 5.25-6.005 9.173-7.4C151.04.99 153.306.75 155.597.704zm-9.95 12.524c-.015 2.4 1.083 3.88 3.037 4.46 1.339.4 2.678.462 4.066.178 3.415-.693 6.058-2.912 6.838-6.442.5-2.26-.524-4.254-2.702-5.015a8.2 8.2 0 0 0-2.166-.415c-2.179-.137-4.157.487-5.902 1.785-1.947 1.448-3.043 3.38-3.171 5.446zm-70.143 9.507c.072-.369.113-.709.203-1.037q1.82-6.567 3.652-13.136c.599-2.15 1.207-4.3 1.81-6.45.171-.622.324-.778.974-.784 1.947-.016 3.894-.012 5.842-.003.459 0 .543.128.403.634-.484 1.729-.99 3.451-1.48 5.177-.143.509-.271 1.024-.412 1.532-.078.281.003.462.306.497.655.08 1.31.209 1.97.215 2.14.028 4.284.013 6.429.01 1.107 0 1.566-.366 1.85-1.442.496-1.885.99-3.774 1.489-5.656.215-.814.437-.976 1.282-.976h5.415c.478 0 .606.078.537.53a18 18 0 0 1-.484 2.144c-1.46 5.25-2.936 10.496-4.403 15.742-.194.696-.353 1.402-.553 2.097-.168.59-.449.95-1.217.93-1.882-.046-3.767-.015-5.649-.018-.477 0-.537-.05-.415-.515.553-2.085 1.124-4.163 1.68-6.245a8 8 0 0 0 .22-1.058c.063-.471-.02-.559-.486-.565-2.481-.022-4.96-.044-7.44-.056-.48 0-.958.031-1.439.043-.471.013-.727.269-.849.709-.54 1.954-1.086 3.907-1.629 5.858-.097.35-.172.705-.28 1.049-.179.555-.522.79-1.096.79l-5.92-.01c-.076 0-.154-.006-.307-.016zm113.443-.113c-.306.025-.58.072-.855.069q-2.746-.011-5.493-.031-.252.002-.505-.007c-.709-.034-.943-.2-1.171-.858-.596-1.707-1.17-3.42-1.785-5.121-.374-1.033-.836-1.317-1.938-1.33q-.078 0-.156.006c-1.383.085-1.442.11-1.835 1.427-.509 1.707-.986 3.423-1.47 5.14-.175.62-.319.749-.946.746q-2.687-.004-5.374-.022c-.868-.006-.911-.05-.677-.89.83-2.986 1.679-5.964 2.515-8.947.687-2.45 1.367-4.9 2.051-7.35l.958-3.43c.137-.5.38-.705.883-.702 3.583.022 7.169 0 10.748.09 1.708.044 3.433.206 5.022.927 1.361.618 2.49 1.533 2.712 3.112.25 1.782-.1 3.477-1.092 5.009-.933 1.442-2.235 2.465-3.73 3.27a8 8 0 0 0-.668.394c-.486.334-.565.54-.349 1.083.259.661.552 1.307.833 1.96l2.247 5.19c.025.056.038.118.081.259zm-9.825-11.56v-.047c.684-.046 1.38-.043 2.054-.156 1.273-.212 2.372-.717 2.99-1.963.73-1.479.162-2.768-1.442-3.149-1.252-.296-2.528-.234-3.798-.165-.503.028-.681.18-.821.67l-1.111 3.911c-.178.625.022.89.69.902.48.007.961 0 1.438 0zM33.379 23.006c-.478-.181-.986-.375-1.495-.565-1.985-.733-3.483-1.972-4.192-4.02-.421-1.217-.343-2.462-.025-3.67A939 939 0 0 1 31.044 2.39c.362-1.292.36-1.052 1.439-1.058a497 497 0 0 1 5.18 0c.775 0 .83.06.628.8-.833 3.036-1.691 6.066-2.512 9.109-.319 1.183-.63 2.375-.83 3.58-.21 1.273.405 2.219 1.607 2.743 2.99 1.305 6.41-.178 7.425-3.317.833-2.578 1.52-5.203 2.262-7.81.4-1.4.774-2.811 1.17-4.215.213-.762.397-.89 1.174-.89h5.374c.103 0 .21-.003.312 0 .525.028.615.131.475.643-.534 1.941-1.08 3.876-1.626 5.814-.606 2.15-1.236 4.291-1.81 6.451-.603 2.266-1.914 4.03-3.677 5.524-2.16 1.832-4.638 2.89-7.434 3.268-2.016.271-4.03.378-6.039-.038-.087-.018-.178-.062-.262-.056-.166.01-.328.044-.521.075zm157.74-.253c.09-.49.134-.927.25-1.345 1.307-4.716 2.627-9.425 3.941-14.138.443-1.591.877-3.186 1.324-4.775.071-.259.168-.518.305-.749.225-.384.615-.424 1.021-.424h16.516c.559 0 1.117.01 1.676.01.346 0 .462.133.359.483-.353 1.214-.69 2.434-1.024 3.654-.115.416-.406.587-.805.59-.74.003-1.479-.015-2.219-.015-2.843 0-5.683.018-8.526.006-.796 0-1.258.34-1.442 1.108-.128.54-.319 1.064-.447 1.604-.137.577.11.802.678.671.093-.022.199.01.296.022.19.025.381.084.571.084 2.531.016 5.065.019 7.597.031.889.003.933.05.702.893q-.407 1.495-.846 2.98c-.172.578-.25.618-.855.618l-8.411-.003c-.955 0-1.233.21-1.504 1.124q-.297 1.003-.587 2.007c-.112.396-.019.577.384.692.184.053.384.063.577.063 3.402.006 6.804.006 10.206.015.493 0 .983.032 1.476.057.309.015.399.193.324.477-.324 1.236-.636 2.475-.973 3.708-.116.418-.394.565-.905.565-1.895 0-3.792-.007-5.687-.01h-13.972zM139.705 4.958c-1.801 1.173-3.508 2.278-5.206 3.398-.287.19-.477.147-.689-.106-1.405-1.67-3.237-2.325-5.384-2.278-1.688.034-3.358.203-4.878.955-2.678 1.32-4.166 3.52-4.413 6.482-.156 1.863 1.167 3.54 2.937 4.085 3.177.983 6.089.356 8.876-1.264.468-.271.945-.533 1.435-.774.113-.056.331-.059.412.013 1.161 1.052 2.304 2.122 3.452 3.19.016.015.016.046.044.143-.546.409-1.089.87-1.682 1.255-2.684 1.732-5.624 2.755-8.811 3.005-1.651.128-3.32.215-4.975.137-2.637-.124-4.974-1.126-6.916-2.92-1.938-1.792-2.562-4.055-2.25-6.633.369-3.036 1.82-5.474 4.048-7.515 1.411-1.289 2.878-2.49 4.557-3.424 1.888-1.048 3.916-1.588 6.057-1.828 2.859-.322 5.668-.144 8.449.596 1.707.452 3.105 1.401 4.325 2.634.238.24.403.552.615.849zM16.897.72c3.43-.022 5.992.402 8.37 1.644.986.515 1.832 1.22 2.566 2.054.327.371.284.527-.135.799l-4.453 2.92c-.11.073-.228.126-.334.2-.275.188-.484.125-.702-.121-.746-.827-1.583-1.533-2.675-1.87-.131-.04-.278-.03-.412-.065-.137-.034-.272-.094-.406-.14-.14-.05-.28-.141-.424-.15-1.83-.116-3.636.053-5.378.63-2.808.933-4.603 2.874-5.258 5.73-.394 1.717.053 3.293 1.498 4.457.203.162.474.24.708.368.26.14.496.334.768.428 1.09.37 2.219.387 3.349.305 2.216-.162 4.263-.83 6.107-2.081.032-.022.066-.04.1-.063.765-.434.837-.412 1.46.184.843.806 1.702 1.595 2.554 2.394.409.384.374.615-.075.946a19.7 19.7 0 0 1-5.234 2.768 19.7 19.7 0 0 1-5.63 1.083c-1.127.05-2.257.19-3.38.14-2.746-.121-5.234-1.008-7.356-2.783C.677 18.952-.078 16.945.006 14.554.131 10.928 1.882 8.172 4.482 5.8c2.128-1.94 4.506-3.43 7.275-4.266 1.925-.584 3.9-.827 5.14-.815M68.192.72c2.516.071 4.987.418 7.344 1.338.605.237 1.157.624 1.71.986.35.228.356.5.025.759-1.202.942-2.419 1.87-3.636 2.793-.38.287-.793.293-1.202.047-1.354-.815-2.821-1.27-4.388-1.47-1.432-.181-2.702.112-3.782 1.095-.49.444-.534 1.124-.106 1.636.38.455.886.708 1.438.88 1.433.443 2.875.864 4.304 1.32 1.177.375 2.307.846 3.261 1.67 1.514 1.301 1.992 3.068 1.32 4.968-.602 1.707-1.788 2.956-3.21 3.995-1.465 1.07-3.137 1.717-4.92 2.01-1.482.24-2.98.484-4.475.509-2.665.046-5.302-.247-7.82-1.24-.943-.37-1.758-.93-2.557-1.532-.318-.237-.1-.406.072-.55.509-.42 1.033-.823 1.551-1.232q1.316-1.033 2.628-2.066c.53-.418.752-.427 1.332-.094.84.484 1.642 1.062 2.538 1.408 1.726.665 3.52.705 5.302.15.331-.103.656-.26.943-.447.945-.624.949-1.76-.044-2.293a15 15 0 0 0-2.537-1.058c-1.67-.53-3.32-1.093-4.847-1.97-1.183-.677-2.1-1.576-2.381-2.955-.2-.98.087-1.9.552-2.76 1.517-2.792 3.826-4.577 6.926-5.32 1.529-.369 3.08-.6 4.662-.578z"/></g><defs><clipPath id="a"><path fill="#fff" d="M0 .707h216.548v22.586H0z"/></clipPath></defs></svg>
